X: 1994
T: Yine de Şahlanıyor Aman
C: Kemal Altınkaya
O: Turkey
F: http://compmusic.upf.edu/node/140
N: hicaz--rumeliturkusu--aksak--yine_de--
N: makam= hicaz
N: form= rumeliturkusu
N: usul= aksak = 9/8
M: 9/8
L: 1/16
K: C _7/8B ^f ^c 
Q: 1/4=180
%%MIDI tuningsystem comma53
a4 dd2d a2a2 efg2 ^1/4fe | d2 z2e2 =f2e2 d2c2 B2A2  | \
w:  ARANAĞME  |   | 
BABd cBBA A3a agfe fg | 
w:   | 
a4dd2da2 a2ef g2^1/4fe  | d2z2 e2=f2 e2d2 c2B2 A2 | \
w:  ARANAĞME  |   | 
BA BdcB BAA4A2 A2A2  | 
w:   | 
A4 AA2A a2a2 efg2 ^1/4fe | e2 z2A2 A2a2 a2e2 f2a2  | \
w:  *  Yi ne  de  şah la nı *  yor_ a  |  man   Kol ba şı nın  yan dım  da   | 
gfea g^1/4ffe e3a g=fed cB | 
w:  kır  *  *  *  *  *  a *  tı   SAZ  | 
A4AA2Aa2 a2ef g2^1/4fe  | e2z2 A2A2 a2a2 e2f2 a2 | \
w:  *  Yi ne  de  şah la nı *  yor_ a  |  man   Kol ba şı nın  yan dım  da   | 
gf eag^1/4f fee3aag ^fefg  | 
w:  kır  *  *  *  *  *  a *  tı   SAZ  | 
a4 dd3 a2a2 efg2 ^1/4fe | d2 z2e2 =f2e2 d2c2 B2A2  | \
w:  *  Gö rü nü yor  yan *  dım_ a  |  man   Bi ze  se *  fer   | 
BABd cBBA A3a agfe fg | 
w:  yol *  *  *  *  *  la *  rı   SAZ  | 
a4dd3a2 a2ef g2^1/4fe  | d2z2 e2=f2 e2d2 c2B2 A2 | \
w:  *  Gö rü nü yor  yan *  dım_ a  |  man   Bi ze  se *  fer   | 
BA BdcB BAA3AAG FEFG  | 
w:  yol *  *  *  *  *  la *  rı   SAZ  | 
A2z2 AA3 a2a_1/4b =c'2c'b ba | a2 z2AA2Aa2 a2e2 f2a2  | 
w:  *  Da vul lar  çal *  sın lar_ *  a  |  man   A man  da  ceng_ i  ceng_ i  de   | 
gfea g^1/4ffe e3a g=fed cB | A2 z2AA3a2 a_1/4b=c'2 c'bba  | 
w:  har *  *  *  *  *  bî *  ye   SAZ  |  *  Da vul lar  çal *  sın lar_ *  a  | 
a2z2 AA2A a2a2 e2f2 a2 | gf eag^1/4f fee3aag ^fefg  | 
w:  man   A man  da  ceng_ i  ceng_ i  de   |  har *  *  *  *  *  bî *  ye   SAZ  | 
a4 dd3 a2a2 efg2 ^1/4fe | d2 z2e2 =f2e2 d2c2 B2A2  | \
w:  *  Se fer siz_ o la *  maz_ a  |  man   A man  er  *  ev  | 
BABd cBBA A3a agfe fg | 
w:  lat *  *  *  *  *  la *  rı   SAZ  | 
a4dd3a2 a2ef g2^1/4fe  | d2z2 e2=f2 e2d2 c2B2 A2 | \
w:  *  Gö rü nü yor  yan *  dım_ a  |  man   Bi ze  se *  fer   | 
BA BdcB BAA3aag fefg  | 
w:  yol *  *  *  *  *  la *  rı   SAZ  | 
a4 dd3 a2a2 efg2 ^1/4fe | d2 z2e2 =f2e2 d2c2 B2A2  | \
w:  *  Gö rü nü yor  yan *  dım_ a  |  man   Bi ze  se *  fer   | 
BABd cBBA A3|
w:  yol *  *  *  *  *  la *  rı    | 


